src/images/v2/searchicon.svg

<svg fill="none" height="32" viewBox="0 0 32 32" width="32" xmlns="http://www.w3.org/2000/svg"><path d="m14.7425 25.6207c5.9043 0 10.6907-4.7864 10.6907-10.6907 0-5.90435-4.7864-10.69074-10.6907-10.69074-5.90429 0-10.69068 4.78639-10.69068 10.69074 0 5.9043 4.78639 10.6907 10.69068 10.6907z" stroke="#4fc4f9" stroke-linecap="round" stroke-linejoin="round" stroke-miterlimit="2" stroke-width="2.81818"/><path d="m24.3273 26.2811c1.4746 1.7511 2.6727 3.1796 2.6727 3.1796s-1.1981-1.4285-2.6727-3.1796zm0 0c-1.4745-1.751-2.6726-3.1795-2.6726-3.1795s1.1827 1.4285 2.6726 3.1795z" stroke="#4fc4f9" stroke-linecap="round" stroke-linejoin="round" stroke-miterlimit="2" stroke-width="2.81818"/><path d="m22.4995 11.4431c2.3583 0 4.2701-1.9118 4.2701-4.27013s-1.9118-4.27014-4.2701-4.27014-4.2701 1.91181-4.2701 4.27014 1.9118 4.27013 4.2701 4.27013z" fill="#00ffa2"/><circle cx="15" cy="15" fill="#4fc4f9" r="3"/></svg>

<svg width="32" height="32" viewBox="0 0 32 32" fill="none" xmlns="http://www.w3.org/2000/svg">
<path d="M14.7425 25.6207C20.6468 25.6207 25.4332 20.8343 25.4332 14.93C25.4332 9.02565 20.6468 4.23926 14.7425 4.23926C8.83821 4.23926 4.05182 9.02565 4.05182 14.93C4.05182 20.8343 8.83821 25.6207 14.7425 25.6207Z" stroke="#4FC4F9" stroke-width="2.81818" stroke-miterlimit="2" stroke-linecap="round" stroke-linejoin="round"/>
<path d="M24.3273 26.2811C25.8019 28.0322 27 29.4607 27 29.4607C27 29.4607 25.8019 28.0322 24.3273 26.2811ZM24.3273 26.2811C22.8528 24.5301 21.6547 23.1016 21.6547 23.1016C21.6547 23.1016 22.8374 24.5301 24.3273 26.2811Z" stroke="#4FC4F9" stroke-width="2.81818" stroke-miterlimit="2" stroke-linecap="round" stroke-linejoin="round"/>
<path d="M22.4995 11.4431C24.8578 11.4431 26.7696 9.5313 26.7696 7.17297C26.7696 4.81464 24.8578 2.90283 22.4995 2.90283C20.1412 2.90283 18.2294 4.81464 18.2294 7.17297C18.2294 9.5313 20.1412 11.4431 22.4995 11.4431Z" fill="#00FFA2"/>
<circle cx="15" cy="15" r="3" fill="#4FC4F9"/>
</svg>
